X: 23522
T: Liberty Bell March, The
R: jig
M: 6/8
K: Gmajor
(g2fe2_e|d2_dc2B)|.A.B.c B2A|D2 z z2 d|:"G"BzB B^AB|gzd dzB|
"D7"c2c c2d|e3e2c|AzA A^GA|fze ezc|"G"BzB Bzc|d3d2d|
BzB B^AB|bzg gzd|"A"^cza aza|a3a2g|"D/A"(kfza a^ga)|"A7"(keza a^ga)|
"D"kdz"A7"^c "D"kdz"A7"^c|1 "D"d3 d3:|2 "D"d3 "D7"k=c3|:"G"(B^AB e2d|B3 G3)|
"C"(E3 "D7"A3|"G"G3G2)G|"D7"(ABc f2e)|"G"d3 "Edim"g3|"D/A"f3 "A7"e3|
"D"d3d2d|"C"(eze {f}e^de)|"B7"f3 f3|"Em"g2g "Am/C"{b}aga|"B"b3b2b|
"Am/C"{b}azg ezc|"G/D"B3 G3|"D7"A3 F3|1 "G"G3G2d:|2 "G"G3G2z||

